X:2030
T:Blue Eyed Rascal, The
R:Hornpipe
C:Trad.
O:Ireland
Z:Paul Hardy's Session Tunebook 2015 (see www.paulhardy.net). Creative Commons cc by-nc-sa licenced.
M:4/4
L:1/8
Q:1/4=120
K:G
"Bm"(3DEF|"G"GF GA (3Bcd gf|"C"(3efg ce "G"dB (3cBA|GF GA (3Bcd BG|"D"Ad "A"(3^cde "D"dB (3=cBA|
"G"GF GA (3Bcd gf|"C"(3efg ce "G"d2 (3def|(3gdB (3GBd "C"(3ceg (3c'ge|"D"(3fga (3def "G"g2:|
|:"G"B2|"Em"ee (3"B"^def "Em"e2 "G"B2|"Em"ee (3"B"^def "Em"e2 "G"B2|"D"dd "A"(3^cde "D"d2 A2|dd "A"(3^cde "D"dB (3=cBA|
"G"GF GA (3Bcd gf|"C"(3efg ce "G"dB (3cBA|GF GA (3Bcd BG|"D"Ad "A"(3^cde "D"dB (3=cBA|
"G"GF GA (3Bcd gf|"C"(3efg ce "G"d2 (3def|(3gdB (3GBd "C"(3ceg (3c'ge|"D"(3fga (3def "G"g2:|

